X: 3
T: Two Days To Go
Z: Dr. Dow
S: https://thesession.org/tunes/781#setting13911
R: reel
M: 4/4
L: 1/8
K: Gmaj
~G3d eGEG|dedB AdBA|G2dg eGBd|eGdG (3cBA BA|GDEG d3e|dDBd AGEG|(3DEG DB AGGd|1 dGAB ADBA:|2 dGAB AG~G2|||:b2ag ag2d|eGeg edBd|d2bg ag2d|eG (3deg ~a3b|abgb ag~g2|eGdB AGEG|EDGB AGGd|1 dGAB AG~G2:|2 dGAB ADBA||
